img/behance.svg

<svg height="37" viewBox="0 0 37 37" width="37" xmlns="http://www.w3.org/2000/svg"><g fill="none" fill-rule="evenodd" stroke="#006883" transform="translate(1 1)"><path d="m.50538831.54904442c.67385108-.48448239 33.01677739-.94435596 33.86125409 0 .8444768.94435597.8444768 33.24581488 0 33.98465918-.8444767.7388443-33.18740301.4925312-33.86125409 0-.67385108-.4925313-.67385108-33.50017678 0-33.98465918z" stroke-width="1.5"/><g fill="#006883" stroke-width=".75" transform="translate(5 11)"><path d="m8.69102687 0c1.98570353.67914583 2.97855523 1.71665928 2.97855523 3.11254036s-.5914914 2.47443444-1.77447428 3.2356601c2.05172808 1.22167963 2.89143248 2.67925044 2.51911308 4.37271244-.3723194 1.6934619-1.6133841 2.786491-3.72319403 3.2790871h-8.00486717l-.1861597-14zm-2.35395646 7.76556781h-.31575569c-.62022405.00119576-1.46781055.00896819-2.54275949.02331729v3.7001935h4.24286826c.19176122 0 1.69115838-.6192765 1.50499868-2.00885914-.1861597-1.38958263-1.68774511-1.64437368-1.95879867-1.69133436-.08282192-.0143491-.39300628-.02212153-.93055309-.02331729zm.14377325-5.47873264h-.62343082c-.59764765.00205409-1.39060018.00924341-2.37885761.02156795v3.30328407c.9870709.01214419 1.78068218.0190083 2.38083382.02059232h.48790239c.48407587-.00158402.77469211-.00844813.87184872-.02059232.33519032-.04189746 1.47188671-.52666809 1.47188671-1.67185572 0-1.14518764-1.28902852-1.58706-1.47188671-1.63142835-.05079394-.01232454-.29689277-.01951386-.7382965-.02156795z"/><path d="m20.0111655 2.88192698c4.5033948.12527824 5.5413643 6.10105427 4.7434059 6.10105427h-7.7315257c-.1981394 0 .1285882 2.61688865 2.175777 2.73799475 1.3647925.0807375 2.2711166-.3316244 2.7189723-1.2370856h2.6735028c.2928855 0-1.3064862 3.5161096-5.0150479 3.5161096-3.7085618 0-5.5762499-2.71543-5.5762499-5.29986832 0-2.58443836 1.5077706-5.94348294 6.0111655-5.8182047zm-.6386401 2.26467582c-1.7173514 0-2.4681041 2.09953425-2.1513402 2.09953425h4.4275943c.2756179 0-.5589028-2.09953425-2.2762541-2.09953425zm3.3927536-5.1466028v1.60558904l-6.265279-.02378082v-1.58180822z"/></g></g></svg>

<?xml version="1.0" encoding="UTF-8"?>
<svg width="37px" height="37px" viewBox="0 0 37 37" version="1.1" xmlns="http://www.w3.org/2000/svg" xmlns:xlink="http://www.w3.org/1999/xlink">
    <title>Behance icon</title>
    <g id="Page-1" stroke="none" stroke-width="1" fill="none" fill-rule="evenodd">
        <g id="1.-Home-S" transform="translate(-125.000000, -1721.000000)" stroke="#006883">
            <g id="Footer" transform="translate(0.000000, 1592.000000)">
                <g id="Behance-icon" transform="translate(126.000000, 130.000000)">
                    <path d="M0.505388308,0.549044425 C1.17923939,0.0645620286 33.5221657,-0.395311541 34.3666424,0.549044425 C35.2111192,1.49340039 35.2111192,33.7948593 34.3666424,34.5337036 C33.5221657,35.2725479 1.17923939,35.0262348 0.505388308,34.5337036 C-0.168462769,34.0411723 -0.168462769,1.03352682 0.505388308,0.549044425 Z" id="Combined-Shape" stroke-width="1.5"></path>
                    <g id="Behance-Logo" transform="translate(5.000000, 11.000000)" fill="#006883" stroke-width="0.75">
                        <path d="M8.69102687,-1.80300219e-13 C10.6767304,0.679145831 11.6695821,1.71665928 11.6695821,3.11254036 C11.6695821,4.50842144 11.0780907,5.5869748 9.89510782,6.34820046 C11.9468359,7.56988009 12.7865403,9.0274509 12.4142209,10.7209129 C12.0419015,12.4143748 10.8008368,13.5074039 8.69102687,14 L0.686159702,14 L0.5,-1.80300219e-13 L8.69102687,-1.80300219e-13 Z M6.33707041,7.76556781 L6.02131472,7.76556781 C5.40109067,7.76676357 4.55350417,7.774536 3.47855523,7.7888851 L3.47855523,11.4890786 L7.72142349,11.4890786 L7.72142349,11.4890786 C7.91318471,11.4890786 9.41258187,10.8698021 9.22642217,9.48021946 C9.04026247,8.09063683 7.53867706,7.83584578 7.2676235,7.7888851 C7.18480158,7.774536 6.87461722,7.76676357 6.33707041,7.76556781 Z M6.48084366,2.28683517 L5.85741284,2.28683517 C5.25976519,2.28888926 4.46681266,2.29607858 3.47855523,2.30840312 L3.47855523,5.61168719 C4.46562613,5.62383138 5.25923741,5.63069549 5.85938905,5.63227951 L6.34729144,5.63227951 C6.83136731,5.63069549 7.12198355,5.62383138 7.21914016,5.61168719 C7.55433048,5.56978973 8.69102687,5.0850191 8.69102687,3.93983147 C8.69102687,2.79464383 7.40199835,2.35277147 7.21914016,2.30840312 C7.16834622,2.29607858 6.92224739,2.28888926 6.48084366,2.28683517 Z" id="Combined-Shape"></path>
                        <path d="M20.0111655,2.88192698 C24.5145603,3.00720522 25.5525298,8.98298125 24.7545714,8.98298125 L17.0230457,8.98298125 L17.0230457,8.98298125 C16.8249063,8.98298125 17.1516339,11.5998699 19.1988227,11.720976 C20.5636152,11.8017135 21.4699393,11.3893516 21.917795,10.4838904 L24.5912978,10.4838904 L24.5912978,10.4838904 C24.8841833,10.4838904 23.2848116,14 19.5762499,14 C15.8676881,14 14,11.28457 14,8.70013168 C14,6.11569332 15.5077706,2.75664874 20.0111655,2.88192698 Z M19.3725254,5.1466028 C17.655174,5.1466028 16.9044213,7.24613705 17.2211852,7.24613705 L17.2211852,7.24613705 L21.6487795,7.24613705 C21.9243974,7.24613705 21.0898767,5.1466028 19.3725254,5.1466028 Z M22.765279,5.27244914e-13 L22.765279,1.60558904 L16.5,1.58180822 L16.5,5.27244914e-13 L22.765279,5.27244914e-13 Z" id="Combined-Shape"></path>
                    </g>
                </g>
            </g>
        </g>
    </g>
</svg>
